src/assets/img/ui/icons/link__external.svg

<?xml version="1.0" encoding="UTF-8" standalone="no"?>
<svg
   width="15"
   height="15"
   viewBox="0 0 15 15"
   fill="none"
   version="1.1"
   id="svg383"
   sodipodi:docname="link__external.svg"
   inkscape:version="1.2.1 (9c6d41e410, 2022-07-14)"
   xmlns:inkscape="http://www.inkscape.org/namespaces/inkscape"
   xmlns:sodipodi="http://sodipodi.sourceforge.net/DTD/sodipodi-0.dtd"
   xmlns="http://www.w3.org/2000/svg"
   xmlns:svg="http://www.w3.org/2000/svg">
  <sodipodi:namedview
     id="namedview385"
     pagecolor="#ffffff"
     bordercolor="#000000"
     borderopacity="0.25"
     inkscape:showpageshadow="2"
     inkscape:pageopacity="0.0"
     inkscape:pagecheckerboard="0"
     inkscape:deskcolor="#d1d1d1"
     showgrid="false"
     inkscape:zoom="36.990524"
     inkscape:cx="6.1231899"
     inkscape:cy="8.7319662"
     inkscape:window-width="1920"
     inkscape:window-height="1017"
     inkscape:window-x="-8"
     inkscape:window-y="-8"
     inkscape:window-maximized="1"
     inkscape:current-layer="svg383" />
  <g
     clip-path="url(#clip0_801_643)"
     id="g376"
     transform="translate(0,-0.5)">
    <path
       d="m 12.6562,9.875 h -0.9374 c -0.1244,0 -0.2436,0.04939 -0.3315,0.1373 -0.0879,0.0879 -0.1373,0.2071 -0.1373,0.3315 V 13.625 H 1.875 V 4.25 H 6.09375 C 6.21807,4.25 6.3373,4.20061 6.42521,4.11271 6.51311,4.0248 6.5625,3.90557 6.5625,3.78125 V 2.84375 C 6.5625,2.71943 6.51311,2.6002 6.42521,2.51229 6.3373,2.42439 6.21807,2.375 6.09375,2.375 H 1.40625 C 1.03329,2.375 0.675604,2.52316 0.411881,2.78688 0.148158,3.0506 0,3.40829 0,3.78125 V 14.0938 c 0,0.3729 0.148158,0.7306 0.411881,0.9943 C 0.675604,15.3518 1.03329,15.5 1.40625,15.5 H 11.7188 c 0.3729,0 0.7306,-0.1482 0.9943,-0.4119 0.2637,-0.2637 0.4119,-0.6214 0.4119,-0.9943 v -3.75 c 0,-0.1244 -0.0494,-0.2436 -0.1373,-0.3315 C 12.8998,9.92439 12.7806,9.875 12.6562,9.875 Z M 14.2969,0.5 h -3.75 C 9.9208,0.5 9.60791,1.25908 10.0488,1.70117 L 11.0956,2.74795 3.95508,9.88584 C 3.88953,9.95116 3.83752,10.0288 3.80203,10.1142 c -0.03549,0.0855 -0.05376,0.1771 -0.05376,0.2697 0,0.0925 0.01827,0.1842 0.05376,0.2696 0.03549,0.0855 0.0875,0.1631 0.15305,0.2284 l 0.66416,0.663 c 0.06532,0.0656 0.14294,0.1176 0.22841,0.1531 0.08546,0.0355 0.17709,0.0537 0.26964,0.0537 0.09254,0 0.18417,-0.0182 0.26963,-0.0537 0.08547,-0.0355 0.16309,-0.0875 0.22841,-0.1531 L 12.7523,4.40586 13.7988,5.45117 C 14.2383,5.89062 15,5.58301 15,4.95312 v -3.75 C 15,1.01664 14.9259,0.837802 14.7941,0.705941 14.6622,0.574079 14.4834,0.5 14.2969,0.5 Z"
       fill="white"
       id="path374"
       style="fill:#212121;fill-opacity:1" />
  </g>
  <defs
     id="defs381">
    <clipPath
       id="clip0_801_643">
      <rect
         width="15"
         height="15"
         fill="#ffffff"
         transform="translate(0,0.5)"
         id="rect378"
         x="0"
         y="0" />
    </clipPath>
  </defs>
</svg>

<svg width="15" height="16" viewBox="0 0 15 16" fill="none" xmlns="http://www.w3.org/2000/svg">
<g clip-path="url(#clip0_801_643)">
<path d="M12.6562 9.875H11.7188C11.5944 9.875 11.4752 9.92439 11.3873 10.0123C11.2994 10.1002 11.25 10.2194 11.25 10.3438V13.625H1.875V4.25H6.09375C6.21807 4.25 6.3373 4.20061 6.42521 4.11271C6.51311 4.0248 6.5625 3.90557 6.5625 3.78125V2.84375C6.5625 2.71943 6.51311 2.6002 6.42521 2.51229C6.3373 2.42439 6.21807 2.375 6.09375 2.375H1.40625C1.03329 2.375 0.675604 2.52316 0.411881 2.78688C0.148158 3.0506 0 3.40829 0 3.78125L0 14.0938C0 14.4667 0.148158 14.8244 0.411881 15.0881C0.675604 15.3518 1.03329 15.5 1.40625 15.5H11.7188C12.0917 15.5 12.4494 15.3518 12.7131 15.0881C12.9768 14.8244 13.125 14.4667 13.125 14.0938V10.3438C13.125 10.2194 13.0756 10.1002 12.9877 10.0123C12.8998 9.92439 12.7806 9.875 12.6562 9.875ZM14.2969 0.5H10.5469C9.9208 0.5 9.60791 1.25908 10.0488 1.70117L11.0956 2.74795L3.95508 9.88584C3.88953 9.95116 3.83752 10.0288 3.80203 10.1142C3.76654 10.1997 3.74827 10.2913 3.74827 10.3839C3.74827 10.4764 3.76654 10.5681 3.80203 10.6535C3.83752 10.739 3.88953 10.8166 3.95508 10.8819L4.61924 11.5449C4.68456 11.6105 4.76218 11.6625 4.84765 11.698C4.93311 11.7335 5.02474 11.7517 5.11729 11.7517C5.20983 11.7517 5.30146 11.7335 5.38692 11.698C5.47239 11.6625 5.55001 11.6105 5.61533 11.5449L12.7523 4.40586L13.7988 5.45117C14.2383 5.89062 15 5.58301 15 4.95312V1.20312C15 1.01664 14.9259 0.837802 14.7941 0.705941C14.6622 0.574079 14.4834 0.5 14.2969 0.5Z" fill="white"/>
</g>
<defs>
<clipPath id="clip0_801_643">
<rect width="15" height="15" fill="white" transform="translate(0 0.5)"/>
</clipPath>
</defs>
</svg>
